X:103
T:Lady Perth. RHu.103
S:R.Hughes MS,1823,Whitchurch,Shrops.
N:There may be repeats but notation indistinct in photocopy.
A:Whitchurch , Shropshire
Z:Neil Brookes 2006
M:6/8
L:1/8
Q:3/8=120
R:Jig
K:G
D|G3 BAG|dBG GFG|AFD DEF|AFD DEF|!
G3 BAG|dBG GFG|AFD DEF|G3G2||!
dcB dcB|gfe dcB|ded dcB|A2B cBA|!
dcB dcB|gfe dcB|ded cBA|G3″cr in MS”{AB}G2|]

